svg/aws-ecs-service.svg

<?xml version="1.0" encoding="UTF-8"?>
<svg xmlns="http://www.w3.org/2000/svg" xmlns:xlink="http://www.w3.org/1999/xlink" width="26" height="32" viewBox="0 0 26 32">
<path fill-rule="nonzero" fill="rgb(92.941176%, 44.313725%, 0%)" fill-opacity="1" d="M 14.191406 26.671875 L 23.460938 26.671875 L 23.460938 25.214844 L 14.191406 25.214844 Z M 14.191406 19.460938 L 23.460938 19.460938 L 23.460938 18.007812 L 14.191406 18.007812 Z M 14.191406 12.253906 L 23.460938 12.253906 L 23.460938 10.800781 L 14.191406 10.800781 Z M 10.285156 26.761719 L 10.285156 25.125 L 11.921875 25.125 L 11.921875 26.761719 Z M 9.558594 28.214844 L 12.648438 28.214844 C 13.050781 28.210938 13.375 27.886719 13.375 27.488281 L 13.375 24.398438 C 13.375 24.207031 13.296875 24.019531 13.164062 23.882812 C 13.027344 23.746094 12.839844 23.671875 12.648438 23.671875 L 9.558594 23.671875 C 9.363281 23.671875 9.179688 23.746094 9.042969 23.882812 C 8.90625 24.019531 8.832031 24.207031 8.832031 24.398438 L 8.832031 27.488281 C 8.832031 27.886719 9.152344 28.214844 9.558594 28.214844 M 10.285156 19.554688 L 10.285156 17.921875 L 11.921875 17.921875 L 11.921875 19.554688 Z M 9.558594 21.007812 L 12.648438 21.007812 C 13.050781 21.003906 13.375 20.679688 13.375 20.28125 L 13.375 17.191406 C 13.375 17 13.296875 16.8125 13.164062 16.675781 C 13.027344 16.539062 12.839844 16.464844 12.648438 16.464844 L 9.558594 16.464844 C 9.363281 16.464844 9.179688 16.539062 9.042969 16.675781 C 8.90625 16.8125 8.832031 17 8.832031 17.191406 L 8.832031 20.28125 C 8.832031 20.679688 9.152344 21.007812 9.558594 21.007812 M 10.285156 12.347656 L 10.285156 10.714844 L 11.921875 10.714844 L 11.921875 12.347656 Z M 9.558594 13.800781 L 12.648438 13.800781 C 13.050781 13.796875 13.375 13.472656 13.375 13.074219 L 13.375 9.988281 C 13.378906 9.792969 13.300781 9.609375 13.164062 9.472656 C 13.027344 9.335938 12.84375 9.261719 12.648438 9.261719 L 9.558594 9.261719 C 9.367188 9.261719 9.179688 9.335938 9.042969 9.472656 C 8.910156 9.609375 8.835938 9.796875 8.832031 9.988281 L 8.832031 13.074219 C 8.832031 13.472656 9.152344 13.800781 9.558594 13.800781 M 7.714844 30.878906 L 7.714844 7.621094 L 24.792969 7.621094 L 24.792969 30.878906 Z M 6.253906 6.894531 L 6.253906 27.792969 L 4.621094 27.792969 L 4.621094 4.535156 L 21.699219 4.535156 L 21.699219 6.167969 L 6.988281 6.167969 C 6.796875 6.164062 6.609375 6.242188 6.472656 6.378906 C 6.332031 6.511719 6.253906 6.699219 6.253906 6.894531 M 3.167969 3.808594 L 3.167969 25.046875 L 1.875 25.046875 L 1.875 1.785156 L 18.953125 1.785156 L 18.953125 3.078125 L 3.894531 3.078125 C 3.492188 3.078125 3.167969 3.40625 3.167969 3.808594 M 25.519531 6.167969 L 23.152344 6.167969 L 23.152344 3.808594 C 23.152344 3.40625 22.832031 3.078125 22.425781 3.078125 L 20.40625 3.078125 L 20.40625 1.058594 C 20.40625 0.867188 20.328125 0.679688 20.195312 0.542969 C 20.058594 0.40625 19.875 0.332031 19.679688 0.332031 L 1.148438 0.332031 C 0.746094 0.335938 0.421875 0.660156 0.421875 1.058594 L 0.421875 25.773438 C 0.421875 26.171875 0.746094 26.5 1.148438 26.5 L 3.167969 26.5 L 3.167969 28.519531 C 3.167969 28.921875 3.492188 29.246094 3.894531 29.246094 L 6.253906 29.246094 L 6.253906 31.605469 C 6.253906 32.007812 6.578125 32.332031 6.988281 32.332031 L 25.519531 32.332031 C 25.710938 32.332031 25.898438 32.253906 26.035156 32.121094 C 26.171875 31.984375 26.246094 31.796875 26.246094 31.605469 L 26.246094 6.894531 C 26.246094 6.703125 26.171875 6.515625 26.035156 6.378906 C 25.898438 6.246094 25.710938 6.167969 25.519531 6.167969 M 25.519531 6.167969 "/>
</svg>

<svg role="img" viewBox="0 0 26 32" height="32" width="26" xmlns="http://www.w3.org/2000/svg"><path d="M14.191 26.672h9.27v-1.457h-9.27Zm0-7.211h9.27v-1.453h-9.27Zm0-7.207h9.27V10.8h-9.27Zm-3.906 14.508v-1.637h1.637v1.637Zm-.726 1.453h3.09a.73.73 0 0 0 .726-.727v-3.09a.747.747 0 0 0-.21-.515.73.73 0 0 0-.517-.211h-3.09a.723.723 0 0 0-.726.726v3.09c0 .399.32.727.727.727m.726-8.66v-1.633h1.637v1.633Zm-.726 1.453h3.09a.73.73 0 0 0 .726-.727v-3.09a.747.747 0 0 0-.21-.515.73.73 0 0 0-.517-.211h-3.09a.723.723 0 0 0-.726.726v3.09c0 .399.32.727.727.727m.726-8.66v-1.633h1.637v1.633ZM9.56 13.8h3.09a.73.73 0 0 0 .726-.727V9.988a.723.723 0 0 0-.727-.727h-3.09a.73.73 0 0 0-.515.212.747.747 0 0 0-.211.515v3.086c0 .399.32.727.727.727M7.715 30.879V7.62h17.078v23.26ZM6.254 6.895v20.898H4.62V4.535H21.7v1.633H6.99a.714.714 0 0 0-.516.21.708.708 0 0 0-.22.517M3.169 3.809v21.238H1.875V1.785h17.078v1.293H3.895a.729.729 0 0 0-.727.73m22.352 2.36h-2.368v-2.36c0-.402-.32-.73-.726-.73h-2.02v-2.02a.747.747 0 0 0-.21-.515.723.723 0 0 0-.516-.211H1.148a.73.73 0 0 0-.726.727v24.714c0 .399.324.727.726.727h2.02v2.02c0 .402.324.726.727.726h2.359v2.36c0 .402.324.726.734.726H25.52a.747.747 0 0 0 .515-.21.73.73 0 0 0 .211-.517V6.895a.73.73 0 0 0-.21-.516.747.747 0 0 0-.516-.211m0 0" fill="rgb(92.941176%, 44.313725%, 0%)"/></svg>
